**kern	**kern
*part1	*part1
*staff2	*staff1
*I"Piano	*
*clefF4	*clefG2
*k[f#c#]	*k[f#c#]
*M3/4	*M3/4
=1	=1
4r	4dd
=	=
4r	2aa
4F#	.
4G	(16bbLL
.	16ccc#J
.	8dddJ)
=	=
2.C#	4bb
.	4aa
.	4gg
=	=
4D	[4ff#
4G	12ff#L]
.	12ee
.	12ff#J
4B	12ggL
.	12ff#
.	12eeJ
=	=
.	4qqdd/
4A	2cc#
4G	.
4F#	4dd
=	=
2G	8r
.	8dddL
.	8aa#X
.	8bbJ
4r	8ff#L
.	8ggJ
=	=
2.G	8r
.	(8bbL
.	8dd#X
.	8eeJ)
.	8bL
.	8ggJ
=	=
*-	*-
!!!system-decoration: {(s1,s2)}
